Adwaita-green/scalable/mimetypes/text-x-script.svg

<?xml version="1.0" encoding="UTF-8"?>
<svg height="128px" viewBox="0 0 128 128" width="128px" xmlns="http://www.w3.org/2000/svg" xmlns:xlink="http://www.w3.org/1999/xlink">
    <clipPath id="a">
        <path d="m 33 46 h 61 v 61 h -61 z m 0 0"/>
    </clipPath>
    <clipPath id="b">
        <path d="m 66.675781 47.21875 l 26.046875 26.046875 c 1.539063 1.539063 1.539063 4.039063 0 5.578125 l -26.046875 26.046875 c -1.539062 1.539063 -4.035156 1.539063 -5.574219 0 l -26.046874 -26.046875 c -1.542969 -1.539062 -1.542969 -4.039062 0 -5.578125 l 26.046874 -26.046875 c 1.539063 -1.539062 4.035157 -1.539062 5.574219 0 z m 0 0"/>
    </clipPath>
    <clipPath id="c">
        <path d="m 56 60 h 38 v 47 h -38 z m 0 0"/>
    </clipPath>
    <clipPath id="d">
        <path d="m 66.675781 47.21875 l 26.046875 26.046875 c 1.539063 1.539063 1.539063 4.039063 0 5.578125 l -26.046875 26.046875 c -1.539062 1.539063 -4.035156 1.539063 -5.574219 0 l -26.046874 -26.046875 c -1.542969 -1.539062 -1.542969 -4.039062 0 -5.578125 l 26.046874 -26.046875 c 1.539063 -1.539062 4.035157 -1.539062 5.574219 0 z m 0 0"/>
    </clipPath>
    <clipPath id="e">
        <path d="m 33 46 h 30 v 45 h -30 z m 0 0"/>
    </clipPath>
    <clipPath id="f">
        <path d="m 66.675781 47.21875 l 26.046875 26.046875 c 1.539063 1.539063 1.539063 4.039063 0 5.578125 l -26.046875 26.046875 c -1.539062 1.539063 -4.035156 1.539063 -5.574219 0 l -26.046874 -26.046875 c -1.542969 -1.539062 -1.542969 -4.039062 0 -5.578125 l 26.046874 -26.046875 c 1.539063 -1.539062 4.035157 -1.539062 5.574219 0 z m 0 0"/>
    </clipPath>
    <path d="m 28 8 h 50 l 30.042969 29.917969 v 74.058593 c 0 4.433594 -3.609375 8.023438 -8.042969 8.023438 h -72 c -4.433594 0 -8 -3.566406 -8 -8 v -96 c 0 -4.433594 3.566406 -8 8 -8 z m 0 0" fill="#f6f5f4"/>
    <path d="m 78 8 v 22 c 0 4.433594 3.609375 7.921875 8.042969 7.921875 l 22 -0.003906 z m 0 0" fill="#deddda"/>
    <g clip-path="url(#a)">
        <g clip-path="url(#b)">
            <path d="m 64.640625 45.183594 l 30.117187 30.117187 c 0.417969 0.417969 0.417969 1.089844 0 1.507813 l -30.117187 30.117187 c -0.414063 0.414063 -1.089844 0.414063 -1.503906 0 l -30.117188 -30.117187 c -0.417969 -0.417969 -0.417969 -1.089844 0 -1.507813 l 30.117188 -30.117187 c 0.414062 -0.414063 1.089843 -0.414063 1.503906 0 z m 0 0" fill="#3584e4"/>
        </g>
    </g>
    <g clip-path="url(#c)">
        <g clip-path="url(#d)">
            <path d="m 82.730469 60.519531 l -1.21875 3.675781 c -0.058594 -0.003906 -0.117188 -0.007812 -0.175781 -0.011718 c -0.984376 0.007812 -1.972657 0.085937 -2.949219 0.230468 l -1.699219 -3.511718 c -1.230469 0.234375 -2.441406 0.5625 -3.621094 0.980468 l 0.28125 3.871094 c -0.96875 0.394532 -1.902344 0.863282 -2.800781 1.394532 l -2.921875 -2.601563 c -1.046875 0.691406 -2.035156 1.460937 -2.964844 2.300781 l 1.734375 3.460938 c -0.738281 0.738281 -1.425781 1.527344 -2.046875 2.367187 l -3.707031 -1.289062 c -0.695313 1.042969 -1.3125 2.132812 -1.847656 3.265625 l 2.921875 2.527344 c -0.398438 0.964843 -0.726563 1.960937 -0.984375 2.972656 l -3.90625 0.230468 c -0.25 1.226563 -0.40625 2.472657 -0.46875 3.722657 l 3.675781 1.21875 c -0.003906 0.058593 -0.003906 0.117187 -0.007812 0.175781 c 0.007812 0.984375 0.085937 1.972656 0.226562 2.949219 l -3.511719 1.699219 c 0.238281 1.230468 0.566407 2.441406 0.984375 3.621093 l 3.871094 -0.28125 c 0.394531 0.96875 0.859375 1.902344 1.394531 2.800781 l -2.601562 2.921876 c 0.691406 1.046874 1.460937 2.035156 2.300781 2.964843 l 3.457031 -1.734375 c 0.738281 0.738282 1.53125 1.425782 2.367188 2.046875 l -1.285157 3.707031 c 1.039063 0.695313 2.128907 1.3125 3.261719 1.847657 l 2.527344 -2.921875 c 0.96875 0.398437 1.960937 0.726562 2.976563 0.984375 l 0.226562 3.90625 c 1.230469 0.25 2.472656 0.40625 3.722656 0.46875 l 1.21875 -3.675781 c 0.058594 0 0.117188 0.003906 0.175782 0.007812 c 0.988281 -0.007812 1.972656 -0.085938 2.949218 -0.226562 l 1.699219 3.511718 c 1.230469 -0.238281 2.441406 -0.566406 3.625 -0.984375 l -0.28125 -3.871093 c 0.964844 -0.394532 1.902344 -0.859376 2.800781 -1.394532 l 2.921875 2.601563 c 1.042969 -0.691407 2.035157 -1.460938 2.964844 -2.300781 l -1.738281 -3.460938 c 0.742187 -0.734375 1.425781 -1.527344 2.050781 -2.367188 l 3.703125 1.289063 c 0.699219 -1.039063 1.316406 -2.132813 1.851562 -3.261719 l -2.925781 -2.527344 c 0.402344 -0.96875 0.730469 -1.960937 0.984375 -2.976562 l 3.910156 -0.226562 c 0.246094 -1.230469 0.402344 -2.472657 0.464844 -3.722657 l -3.675781 -1.21875 c 0.003906 -0.058593 0.007813 -0.117187 0.007813 -0.175781 c -0.003907 -0.988281 -0.082032 -1.972656 -0.226563 -2.949219 l 3.511719 -1.699219 c -0.234375 -1.230468 -0.5625 -2.441406 -0.980469 -3.625 l -3.871094 0.28125 c -0.394531 -0.964843 -0.863281 -1.902343 -1.394531 -2.800781 l 2.601562 -2.921875 c -0.691406 -1.042968 -1.460937 -2.035156 -2.300781 -2.964844 l -3.460937 1.738282 c -0.738282 -0.742188 -1.527344 -1.425782 -2.367188 -2.050782 l 1.289063 -3.703124 c -1.042969 -0.699219 -2.132813 -1.316407 -3.265625 -1.851563 l -2.527344 2.925781 c -0.964844 -0.402344 -1.960938 -0.730468 -2.972656 -0.984375 l -0.230469 -3.910156 c -1.226563 -0.25 -2.472656 -0.402344 -3.722656 -0.464844 z m -1.394531 9.339844 c 8.636718 0 15.640624 7.003906 15.640624 15.640625 s -7.003906 15.636719 -15.640624 15.636719 c -8.636719 0 -15.636719 -7 -15.636719 -15.636719 s 7 -15.640625 15.636719 -15.640625 z m 0 0" fill="#98c1f1"/>
        </g>
    </g>
    <g clip-path="url(#e)">
        <g clip-path="url(#f)">
            <path d="m 38.71875 40.726562 l -1.214844 3.675782 c -0.058594 -0.003906 -0.117187 -0.007813 -0.175781 -0.011719 c -0.988281 0.007813 -1.972656 0.085937 -2.949219 0.230469 l -1.703125 -3.511719 c -1.230469 0.234375 -2.441406 0.5625 -3.621093 0.980469 l 0.28125 3.871094 c -0.964844 0.394531 -1.902344 0.863281 -2.800782 1.394531 l -2.921875 -2.601563 c -1.042969 0.691406 -2.035156 1.460938 -2.964843 2.300782 l 1.738281 3.460937 c -0.742188 0.738281 -1.425781 1.527344 -2.050781 2.367187 l -3.703126 -1.289062 c -0.699218 1.042969 -1.316406 2.132812 -1.851562 3.265625 l 2.925781 2.527344 c -0.402343 0.964843 -0.730469 1.960937 -0.984375 2.972656 l -3.910156 0.230469 c -0.25 1.226562 -0.402344 2.472656 -0.464844 3.722656 l 3.675782 1.21875 c -0.003907 0.058594 -0.007813 0.117188 -0.011719 0.175781 c 0.007812 0.984375 0.085937 1.972657 0.230469 2.945313 l -3.511719 1.703125 c 0.234375 1.230469 0.5625 2.441406 0.980469 3.621093 l 3.871093 -0.28125 c 0.394531 0.96875 0.859375 1.902344 1.394531 2.800782 l -2.601562 2.921875 c 0.691406 1.046875 1.460938 2.035156 2.300781 2.964843 l 3.460938 -1.734374 c 0.738281 0.738281 1.527343 1.421874 2.367187 2.046874 l -1.289062 3.703126 c 1.042968 0.699218 2.132812 1.316406 3.265625 1.851562 l 2.527343 -2.921875 c 0.964844 0.398437 1.960938 0.726563 2.972657 0.980469 l 0.230469 3.910156 c 1.226562 0.25 2.46875 0.40625 3.722656 0.46875 l 1.21875 -3.675781 c 0.058594 0 0.117187 0.003906 0.175781 0.007812 c 0.984375 -0.007812 1.96875 -0.085937 2.945313 -0.230469 l 1.703124 3.511719 c 1.230469 -0.234375 2.441407 -0.5625 3.621094 -0.980469 l -0.28125 -3.871093 c 0.964844 -0.394531 1.902344 -0.859375 2.800782 -1.394531 l 2.921874 2.601562 c 1.046876 -0.691406 2.035157 -1.460938 2.964844 -2.300781 l -1.738281 -3.460938 c 0.742187 -0.734375 1.425781 -1.527343 2.050781 -2.367187 l 3.703125 1.289062 c 0.699219 -1.039062 1.316407 -2.132812 1.851563 -3.265625 l -2.921875 -2.523437 c 0.398437 -0.96875 0.726562 -1.960938 0.980469 -2.976563 l 3.910156 -0.226562 c 0.25 -1.230469 0.40625 -2.472657 0.464844 -3.722657 l -3.671876 -1.21875 c 0 -0.058593 0.003907 -0.117187 0.007813 -0.175781 c -0.007813 -0.988281 -0.085937 -1.972656 -0.230469 -2.949219 l 3.511719 -1.703124 c -0.234375 -1.230469 -0.5625 -2.441407 -0.980469 -3.621094 l -3.871094 0.28125 c -0.394531 -0.964844 -0.859374 -1.902344 -1.394531 -2.800782 l 2.601563 -2.921874 c -0.691406 -1.042969 -1.460938 -2.035157 -2.300782 -2.964844 l -3.460937 1.738281 c -0.738281 -0.742187 -1.527344 -1.425781 -2.367187 -2.050781 l 1.289062 -3.703125 c -1.039062 -0.699219 -2.132812 -1.316407 -3.265625 -1.851563 l -2.527344 2.925782 c -0.964843 -0.402344 -1.957031 -0.730469 -2.972656 -0.984376 l -0.226563 -3.910156 c -1.230468 -0.25 -2.472656 -0.402344 -3.726562 -0.464844 z m 0 0" fill="#1a5fb4"/>
        </g>
    </g>
    <path d="m 34.335938 74.457031 c -0.621094 1.535157 -0.308594 3.359375 0.941406 4.609375 l 25.601562 25.601563 c 1.667969 1.667969 4.351563 1.667969 6.019532 0 l 25.601562 -25.601563 c 1.25 -1.25 1.5625 -3.074218 0.941406 -4.609375 c -0.210937 0.515625 -0.523437 0.996094 -0.941406 1.414063 l -25.601562 25.601562 c -1.667969 1.667969 -4.351563 1.667969 -6.019532 0 l -25.601562 -25.601562 c -0.417969 -0.417969 -0.730469 -0.898438 -0.941406 -1.414063 z m 0 0" fill="#1a5fb4" fill-opacity="0.501961"/>
</svg>

<svg width="128" height="128" viewBox="0 0 128 128" fill="none" xmlns="http://www.w3.org/2000/svg">
<path d="M28 8H78L108.043 37.918V111.977C108.043 116.41 104.434 120 100 120H28C23.5664 120 20 116.434 20 112V16C20 11.5664 23.5664 8 28 8Z" fill="#F6F5F4"/>
<path d="M78 8V30C78 34.4336 81.6094 37.9219 86.043 37.9219L108.043 37.918L78 8Z" fill="#DEDDDA"/>
<mask id="mask0_8_215" style="mask-type:luminance" maskUnits="userSpaceOnUse" x="33" y="46" width="61" height="61">
<path d="M33 46H94V107H33V46Z" fill="white"/>
</mask>
<g mask="url(#mask0_8_215)">
<mask id="mask1_8_215" style="mask-type:luminance" maskUnits="userSpaceOnUse" x="33" y="46" width="61" height="61">
<path d="M66.6758 47.2187L92.7227 73.2656C94.2617 74.8047 94.2617 77.3047 92.7227 78.8438L66.6758 104.891C65.1367 106.43 62.6406 106.43 61.1016 104.891L35.0547 78.8438C33.5117 77.3047 33.5117 74.8047 35.0547 73.2656L61.1016 47.2187C62.6406 45.6797 65.1367 45.6797 66.6758 47.2187Z" fill="white"/>
</mask>
<g mask="url(#mask1_8_215)">
<path d="M64.6406 45.1836L94.7578 75.3008C95.1758 75.7188 95.1758 76.3906 94.7578 76.8086L64.6406 106.926C64.2266 107.34 63.5508 107.34 63.1367 106.926L33.0195 76.8086C32.6016 76.3906 32.6016 75.7188 33.0195 75.3008L63.1367 45.1836C63.5508 44.7695 64.2266 44.7695 64.6406 45.1836Z" fill="#33D17A"/>
</g>
</g>
<mask id="mask2_8_215" style="mask-type:luminance" maskUnits="userSpaceOnUse" x="56" y="60" width="38" height="47">
<path d="M56 60H94V107H56V60Z" fill="white"/>
</mask>
<g mask="url(#mask2_8_215)">
<mask id="mask3_8_215" style="mask-type:luminance" maskUnits="userSpaceOnUse" x="33" y="46" width="61" height="61">
<path d="M66.6758 47.2187L92.7227 73.2656C94.2617 74.8047 94.2617 77.3047 92.7227 78.8438L66.6758 104.891C65.1367 106.43 62.6406 106.43 61.1016 104.891L35.0547 78.8438C33.5117 77.3047 33.5117 74.8047 35.0547 73.2656L61.1016 47.2187C62.6406 45.6797 65.1367 45.6797 66.6758 47.2187Z" fill="white"/>
</mask>
<g mask="url(#mask3_8_215)">
<path d="M82.7305 60.5195L81.5117 64.1953C81.4531 64.1914 81.3945 64.1875 81.3359 64.1836C80.3516 64.1914 79.3633 64.2695 78.3867 64.4141L76.6875 60.9023C75.457 61.1367 74.2461 61.4648 73.0664 61.8828L73.3477 65.7539C72.3789 66.1484 71.4453 66.6172 70.5469 67.1484L67.625 64.5469C66.5781 65.2383 65.5898 66.0078 64.6602 66.8477L66.3945 70.3086C65.6563 71.0469 64.9688 71.8359 64.3477 72.6758L60.6406 71.3867C59.9453 72.4297 59.3281 73.5195 58.793 74.6523L61.7148 77.1797C61.3164 78.1445 60.9883 79.1406 60.7305 80.1523L56.8242 80.3828C56.5742 81.6094 56.418 82.8555 56.3555 84.1055L60.0312 85.3242C60.0273 85.3828 60.0273 85.4414 60.0234 85.5C60.0312 86.4844 60.1094 87.4727 60.25 88.4492L56.7383 90.1484C56.9766 91.3789 57.3047 92.5898 57.7227 93.7695L61.5938 93.4883C61.9883 94.457 62.4531 95.3906 62.9883 96.2891L60.3867 99.2109C61.0781 100.258 61.8477 101.246 62.6875 102.176L66.1445 100.441C66.8828 101.18 67.6758 101.867 68.5117 102.488L67.2266 106.195C68.2656 106.891 69.3555 107.508 70.4883 108.043L73.0156 105.121C73.9844 105.52 74.9766 105.848 75.9922 106.105L76.2188 110.012C77.4492 110.262 78.6914 110.418 79.9414 110.48L81.1602 106.805C81.2188 106.805 81.2773 106.809 81.3359 106.812C82.3242 106.805 83.3086 106.727 84.2852 106.586L85.9844 110.098C87.2148 109.859 88.4258 109.531 89.6094 109.113L89.3281 105.242C90.293 104.848 91.2305 104.383 92.1289 103.848L95.0508 106.449C96.0938 105.758 97.0859 104.988 98.0156 104.148L96.2773 100.688C97.0195 99.9531 97.7031 99.1602 98.3281 98.3203L102.031 99.6094C102.73 98.5703 103.348 97.4766 103.883 96.3477L100.957 93.8203C101.359 92.8516 101.688 91.8594 101.941 90.8438L105.852 90.6172C106.098 89.3867 106.254 88.1445 106.316 86.8945L102.641 85.6758C102.645 85.6172 102.648 85.5586 102.648 85.5C102.645 84.5117 102.566 83.5273 102.422 82.5508L105.934 80.8516C105.699 79.6211 105.371 78.4102 104.953 77.2266L101.082 77.5078C100.688 76.543 100.219 75.6055 99.6875 74.707L102.289 71.7852C101.598 70.7422 100.828 69.75 99.9883 68.8203L96.5273 70.5586C95.7891 69.8164 95 69.1328 94.1602 68.5078L95.4492 64.8047C94.4062 64.1055 93.3164 63.4883 92.1836 62.9531L89.6562 65.8789C88.6914 65.4766 87.6953 65.1484 86.6836 64.8945L86.4531 60.9844C85.2266 60.7344 83.9805 60.582 82.7305 60.5195ZM81.3359 69.8594C89.9727 69.8594 96.9766 76.8633 96.9766 85.5C96.9766 94.1367 89.9727 101.137 81.3359 101.137C72.6992 101.137 65.6992 94.1367 65.6992 85.5C65.6992 76.8633 72.6992 69.8594 81.3359 69.8594Z" fill="#8FF0A4"/>
</g>
</g>
<mask id="mask4_8_215" style="mask-type:luminance" maskUnits="userSpaceOnUse" x="33" y="46" width="30" height="45">
<path d="M33 46H63V91H33V46Z" fill="white"/>
</mask>
<g mask="url(#mask4_8_215)">
<mask id="mask5_8_215" style="mask-type:luminance" maskUnits="userSpaceOnUse" x="33" y="46" width="61" height="61">
<path d="M66.6758 47.2187L92.7227 73.2656C94.2617 74.8047 94.2617 77.3047 92.7227 78.8438L66.6758 104.891C65.1367 106.43 62.6406 106.43 61.1016 104.891L35.0547 78.8438C33.5117 77.3047 33.5117 74.8047 35.0547 73.2656L61.1016 47.2187C62.6406 45.6797 65.1367 45.6797 66.6758 47.2187Z" fill="white"/>
</mask>
<g mask="url(#mask5_8_215)">
<path d="M38.7188 40.7266L37.5039 44.4023C37.4453 44.3984 37.3867 44.3945 37.3281 44.3906C36.3398 44.3984 35.3555 44.4766 34.3789 44.6211L32.6758 41.1094C31.4453 41.3438 30.2344 41.6719 29.0547 42.0898L29.3359 45.9609C28.3711 46.3555 27.4336 46.8242 26.5352 47.3555L23.6133 44.7539C22.5703 45.4453 21.5781 46.2148 20.6484 47.0547L22.3867 50.5156C21.6445 51.2539 20.9609 52.043 20.3359 52.8828L16.6328 51.5938C15.9336 52.6367 15.3164 53.7266 14.7812 54.8594L17.707 57.3867C17.3047 58.3516 16.9766 59.3477 16.7227 60.3594L12.8125 60.5898C12.5625 61.8164 12.4102 63.0625 12.3477 64.3125L16.0234 65.5312C16.0195 65.5898 16.0156 65.6484 16.0117 65.707C16.0195 66.6914 16.0977 67.6797 16.2422 68.6523L12.7305 70.3555C12.9648 71.5859 13.293 72.7969 13.7109 73.9766L17.582 73.6953C17.9766 74.6641 18.4414 75.5977 18.9766 76.4961L16.375 79.418C17.0664 80.4648 17.8359 81.4531 18.6758 82.3828L22.1367 80.6484C22.875 81.3867 23.6641 82.0703 24.5039 82.6953L23.2148 86.3984C24.2578 87.0977 25.3477 87.7148 26.4805 88.25L29.0078 85.3281C29.9727 85.7266 30.9687 86.0547 31.9805 86.3086L32.2109 90.2188C33.4375 90.4688 34.6797 90.625 35.9336 90.6875L37.1523 87.0117C37.2109 87.0117 37.2695 87.0156 37.3281 87.0195C38.3125 87.0117 39.2969 86.9336 40.2734 86.7891L41.9766 90.3008C43.207 90.0664 44.418 89.7383 45.5977 89.3203L45.3164 85.4492C46.2813 85.0547 47.2187 84.5898 48.1172 84.0547L51.0391 86.6562C52.0859 85.9648 53.0742 85.1953 54.0039 84.3555L52.2656 80.8945C53.0078 80.1602 53.6914 79.3672 54.3164 78.5273L58.0195 79.8164C58.7188 78.7773 59.3359 77.6836 59.8711 76.5508L56.9492 74.0273C57.3477 73.0586 57.6758 72.0664 57.9297 71.0508L61.8398 70.8242C62.0898 69.5937 62.2461 68.3516 62.3047 67.1016L58.6328 65.8828C58.6328 65.8242 58.6367 65.7656 58.6406 65.707C58.6328 64.7188 58.5547 63.7344 58.4102 62.7578L61.9219 61.0547C61.6875 59.8242 61.3594 58.6133 60.9414 57.4336L57.0703 57.7148C56.6758 56.75 56.2109 55.8125 55.6758 54.9141L58.2773 51.9922C57.5859 50.9492 56.8164 49.957 55.9766 49.0273L52.5156 50.7656C51.7773 50.0234 50.9883 49.3398 50.1484 48.7148L51.4375 45.0117C50.3984 44.3125 49.3047 43.6953 48.1719 43.1602L45.6445 46.0859C44.6797 45.6836 43.6875 45.3555 42.6719 45.1016L42.4453 41.1914C41.2148 40.9414 39.9727 40.7891 38.7188 40.7266Z" fill="#26A269"/>
</g>
</g>
<path d="M34.3359 74.457C33.7148 75.9922 34.0273 77.8164 35.2773 79.0664L60.8789 104.668C62.5469 106.336 65.2305 106.336 66.8984 104.668L92.5 79.0664C93.75 77.8164 94.0625 75.9922 93.4414 74.457C93.2305 74.9727 92.918 75.4531 92.5 75.8711L66.8984 101.473C65.2305 103.141 62.5469 103.141 60.8789 101.473L35.2773 75.8711C34.8594 75.4531 34.5469 74.9727 34.3359 74.457Z" fill="#26A269" fill-opacity="0.501961"/>
</svg>
